X: 247
T: Qinxuemei Shangfen
L: 1/8
M: 4/4
K: G
e> d B dA4 [I:setbarnb 1]| 
e> d B d2<A2B | 
G2>E2d3B | 
A> B D EG4 | 
B2B d e g e d | 
G A d B2<A2B | 
D D D E B> A G F | 
E> D E GD4 |]

@@@ Tune index: 9121
